learning-site/svg (115).svg

<svg xmlns="http://www.w3.org/2000/svg" xmlns:xlink="http://www.w3.org/1999/xlink" viewBox="0 0 100 118" version="1.1"><!-- Generator: Sketch 51.3 (57544) - http://www.bohemiancoding.com/sketch --><title>working-with-nosql-data-in-azure-costmos-db</title><desc>Created with Sketch.</desc><defs><filter x="-1.3%" y="-1.7%" width="102.6%" height="106.9%" filterUnits="objectBoundingBox" id="filter-1"><feOffset dx="0" dy="2" in="SourceAlpha" result="shadowOffsetOuter1"></feOffset><feColorMatrix values="0 0 0 0 0   0 0 0 0 0   0 0 0 0 0  0 0 0 0.101137908 0" type="matrix" in="shadowOffsetOuter1" result="shadowMatrixOuter1"></feColorMatrix><feMerge><feMergeNode in="shadowMatrixOuter1"></feMergeNode><feMergeNode in="SourceGraphic"></feMergeNode></feMerge></filter></defs><g id="Badges-FINAL" stroke="none" stroke-width="1" fill="none" fill-rule="evenodd"><g id="Working-with-NoSQL-data-in-Azure-Costmos-DB" transform="translate(-576.000000, -148.000000)"><g id="working-with-nosql-data-in-azure-costmos-db" transform="translate(576.000000, 148.000000)"><path d="M44.7425,3.49663266 C46.3745,2.49887755 48.1865,2 50,2 C51.8135,2 53.627,2.49887755 55.256,3.49663266 L92.591,26.3316189 C95.933,28.3773408 98,32.2031485 98,36.3529027 L98,81.6470973 C98,85.7952317 95.933,89.6242789 92.591,91.6683811 L55.256,114.504987 C53.627,115.501122 51.8135,116 50,116 C48.1865,116 46.3745,115.501122 44.7425,114.504987 L7.409,91.6683811 C4.0655,89.6242789 2,85.7952317 2,81.6470973 L2,36.3529027 C2,32.2031485 4.0655,28.3773408 7.409,26.3316189 L44.7425,3.49663266 Z" id="Trophy-1" fill="#55A2FF"></path><g id="Stars" transform="translate(11.000000, 18.000000)" fill="#FFFFFF"><path d="M27.5,3.5 L29.5,3.5 L29.5,5.5 C29.5,5.77539 29.72461,6 30,6 C30.27539,6 30.5,5.77539 30.5,5.5 L30.5,3.5 L32.5,3.5 C32.77539,3.5 33,3.27539 33,3 C33,2.72461 32.77539,2.5 32.5,2.5 L30.5,2.5 L30.5,0.5 C30.5,0.22461 30.27539,0 30,0 C29.72461,0 29.5,0.22461 29.5,0.5 L29.5,2.5 L27.5,2.5 C27.22461,2.5 27,2.72461 27,3 C27,3.27539 27.22461,3.5 27.5,3.5 Z" id="Path"></path><path d="M49.5,79.5 L51.5,79.5 L51.5,81.5 C51.5,81.77539 51.72461,82 52,82 C52.27539,82 52.5,81.77539 52.5,81.5 L52.5,79.5 L54.5,79.5 C54.77539,79.5 55,79.27539 55,79 C55,78.72461 54.77539,78.5 54.5,78.5 L52.5,78.5 L52.5,76.5 C52.5,76.22461 52.27539,76 52,76 C51.72461,76 51.5,76.22461 51.5,76.5 L51.5,78.5 L49.5,78.5 C49.22461,78.5 49,78.72461 49,79 C49,79.27539 49.22461,79.5 49.5,79.5 Z" id="Path"></path><path d="M0.583333333,56.0833333 L2.91666667,56.0833333 L2.91666667,58.4166667 C2.91666667,58.737955 3.17871167,59 3.5,59 C3.82128833,59 4.08333333,58.737955 4.08333333,58.4166667 L4.08333333,56.0833333 L6.41666667,56.0833333 C6.737955,56.0833333 7,55.8212883 7,55.5 C7,55.1787117 6.737955,54.9166667 6.41666667,54.9166667 L4.08333333,54.9166667 L4.08333333,52.5833333 C4.08333333,52.262045 3.82128833,52 3.5,52 C3.17871167,52 2.91666667,52.262045 2.91666667,52.5833333 L2.91666667,54.9166667 L0.583333333,54.9166667 C0.262045,54.9166667 0,55.1787117 0,55.5 C0,55.8212883 0.262045,56.0833333 0.583333333,56.0833333 Z" id="Path"></path><path d="M67.5,30.5 L69.5,30.5 L69.5,32.5 C69.5,32.77539 69.72461,33 70,33 C70.27539,33 70.5,32.77539 70.5,32.5 L70.5,30.5 L72.5,30.5 C72.77539,30.5 73,30.27539 73,30 C73,29.72461 72.77539,29.5 72.5,29.5 L70.5,29.5 L70.5,27.5 C70.5,27.22461 70.27539,27 70,27 C69.72461,27 69.5,27.22461 69.5,27.5 L69.5,29.5 L67.5,29.5 C67.22461,29.5 67,29.72461 67,30 C67,30.27539 67.22461,30.5 67.5,30.5 Z" id="Path"></path><path d="M59.3333333,8.33333333 L60.6666667,8.33333333 L60.6666667,9.66666667 C60.6666667,9.85026 60.8164067,10 61,10 C61.1835933,10 61.3333333,9.85026 61.3333333,9.66666667 L61.3333333,8.33333333 L62.6666667,8.33333333 C62.85026,8.33333333 63,8.18359333 63,8 C63,7.81640667 62.85026,7.66666667 62.6666667,7.66666667 L61.3333333,7.66666667 L61.3333333,6.33333333 C61.3333333,6.14974 61.1835933,6 61,6 C60.8164067,6 60.6666667,6.14974 60.6666667,6.33333333 L60.6666667,7.66666667 L59.3333333,7.66666667 C59.14974,7.66666667 59,7.81640667 59,8 C59,8.18359333 59.14974,8.33333333 59.3333333,8.33333333 Z" id="Path"></path></g><g id="Planet" filter="url(#filter-1)" transform="translate(11.000000, 30.000000)"><path d="M43.3562426,56.466911 C28.8857988,60.3914626 13.9585453,51.6682788 10.0812015,37.0216525 C6.20385776,22.3750263 14.8221116,7.26602866 29.2925555,3.341477 C43.7629993,-0.583074672 58.6902528,8.14010919 62.5675966,22.7867354 C66.4449403,37.4333616 57.8266865,52.5423593 43.3562426,56.466911 Z" id="Mask" fill="#8680D8" fill-rule="nonzero"></path><path d="M33.7000597,2.53040215 C46.6788626,1.24839833 59.0837288,9.6264605 62.5675966,22.7867354 C66.0514644,35.9470103 59.447177,49.4805747 47.5739125,54.9387389 C47.0159552,55.1305357 46.4481475,55.3050875 45.8709207,55.4616381 C31.5647827,59.3416281 16.8070219,50.7174924 12.9737038,36.2371725 C9.14038565,21.7568526 17.6607828,6.81941132 31.9669208,2.9394213 C32.5441476,2.78287072 33.1221096,2.64667656 33.7000597,2.53040215 Z" id="Shape" fill="#3C3C3C" fill-rule="nonzero" opacity="0.336662946"></path><path d="M55.5275934,20.5529442 C53.8558595,21.0063377 52.1375245,20.0021776 51.6895847,18.3100898 C51.241645,16.618002 52.2337262,14.8787458 53.9054601,14.4253522 C55.577194,13.9719586 57.295529,14.9761187 57.7434687,16.6682065 C58.1914085,18.3602943 57.1993273,20.0995506 55.5275934,20.5529442 Z" id="rock" fill="#595490"></path><path d="M25.9516497,23.5853158 C23.3246393,24.2977914 20.6243986,22.7198255 19.9204933,20.0608304 C19.216588,17.4018353 20.7755727,14.6687183 23.4025831,13.9562427 C26.0295935,13.2437671 28.7298342,14.8217329 29.4337395,17.480728 C30.1376448,20.1397232 28.5786601,22.8728402 25.9516497,23.5853158 Z" id="rock" fill="#595490"></path><path d="M40.3066632,50.4591942 C38.6349293,50.9125877 36.9165943,49.9084276 36.4686545,48.2163398 C36.0207148,46.524252 37.0127959,44.7849958 38.6845298,44.3316022 C40.3562637,43.8782086 42.0745987,44.8823687 42.5225385,46.5744565 C42.9704782,48.2665443 41.978397,50.0058006 40.3066632,50.4591942 Z" id="rock" fill="#595490"></path><path d="M63.3770344,27.8107429 L63.163023,25.5556945 L64.8545829,27.039167 C74.4749678,35.4760997 78.3740176,43.3325527 75.4850475,48.397345 C74.5611378,50.0171109 72.9888908,51.1239525 70.853439,51.7031117 C67.8151848,52.5271214 63.6093096,52.2958169 58.3625872,51.0405877 C50.3649483,49.126105 40.7067845,44.9967269 31.1490194,39.4112819 C21.5912547,33.8258371 13.2290955,27.4243514 7.5921713,21.3709165 C1.31294541,14.6259007 -0.965184827,8.99839859 1.29251855,5.04024985 C4.19960044,-0.0575157109 12.4857785,-0.628523455 24.4348674,3.55785764 L26.5501116,4.29893659 L24.5134411,5.23884164 C23.3948648,5.75505449 22.2953031,6.37141211 21.198239,7.08952999 L20.8471899,7.31932023 L20.4477532,7.19442184 C12.0028664,4.55382196 6.63247566,5.10417854 5.3236824,7.39587198 C4.33816759,9.12364162 6.3340028,13.2087079 11.0091815,18.2023347 C16.2270245,23.7755891 24.1098547,29.8573938 33.4763891,35.3310859 C42.6590232,40.6973088 51.8847827,44.6486778 59.4335868,46.4548662 C65.9581356,48.016199 70.4955255,47.7219234 71.4538599,46.0418055 C72.7281235,43.8068217 70.2637672,38.4761987 63.7365694,32.3513299 L63.4300161,32.0636722 L63.4510696,31.6410967 C63.5168817,30.3201563 63.4945131,29.0486214 63.3770344,27.8107429 Z" id="Shape" fill="#5757B2" fill-rule="nonzero"></path></g><g id="Azure-Hex-Border" stroke="#0078D4" stroke-width="4"><path d="M45.5620172,3.25834249 L6.67338401,26.8942953 C3.79673288,28.6432593 2,31.9508238 2,35.5582677 L2,82.4417323 C2,86.0486597 3.79764663,89.3586805 6.67318764,91.1055853 L45.560618,114.742485 C46.9289662,115.572418 48.4546283,116 50,116 C51.5458817,116 53.0723633,115.572188 54.4362178,114.743457 L93.3268764,91.1055464 C96.2016145,89.3583456 98,86.0476286 98,82.4417323 L98,35.5582677 C98,31.9518547 96.202529,28.6435953 93.3268966,26.8944659 L54.4351916,3.25759524 C53.0721095,2.42798656 51.5462432,2 50,2 C48.4543284,2 46.9293388,2.42772325 45.5620146,3.25834407 Z M45.5620146,3.25834407 C45.5619597,3.25837737 45.5619049,3.25841067 45.5618501,3.25844398 L45.5621963,3.25823359 L45.5620172,3.25834249 Z"></path></g></g></g></g></svg>

<svg xmlns="http://www.w3.org/2000/svg" viewBox="0 0 100 118"><defs><filter x="-1.3%" y="-1.7%" width="102.6%" height="106.9%" filterUnits="objectBoundingBox" id="a"><feOffset dy="2" in="SourceAlpha" result="shadowOffsetOuter1"/><feColorMatrix values="0 0 0 0 0 0 0 0 0 0 0 0 0 0 0 0 0 0 0.101137908 0" in="shadowOffsetOuter1" result="shadowMatrixOuter1"/><feMerge><feMergeNode in="shadowMatrixOuter1"/><feMergeNode in="SourceGraphic"/></feMerge></filter></defs><g fill="none" fill-rule="evenodd"><path d="M44.742 3.497A10.056 10.056 0 0 1 50 2c1.813 0 3.627.499 5.256 1.497l37.335 22.835C95.933 28.377 98 32.203 98 36.352v45.295c0 4.148-2.067 7.977-5.409 10.021l-37.335 22.837A10.056 10.056 0 0 1 50 116c-1.813 0-3.626-.499-5.258-1.495L7.41 91.668C4.066 89.624 2 85.795 2 81.648V36.352c0-4.15 2.066-7.976 5.409-10.021L44.743 3.497z" fill="#55A2FF"/><g fill="#FFF"><path d="M38.5 21.5h2v2a.501.501 0 0 0 1 0v-2h2a.501.501 0 0 0 0-1h-2v-2a.501.501 0 0 0-1 0v2h-2a.501.501 0 0 0 0 1zM60.5 97.5h2v2a.501.501 0 0 0 1 0v-2h2a.501.501 0 0 0 0-1h-2v-2a.501.501 0 0 0-1 0v2h-2a.501.501 0 0 0 0 1zM11.583 74.083h2.334v2.334a.584.584 0 0 0 1.166 0v-2.334h2.334a.584.584 0 0 0 0-1.166h-2.334v-2.334a.584.584 0 0 0-1.166 0v2.334h-2.334a.584.584 0 0 0 0 1.166zM78.5 48.5h2v2a.501.501 0 0 0 1 0v-2h2a.501.501 0 0 0 0-1h-2v-2a.501.501 0 0 0-1 0v2h-2a.501.501 0 0 0 0 1zM70.333 26.333h1.334v1.334a.334.334 0 0 0 .666 0v-1.334h1.334a.334.334 0 0 0 0-.666h-1.334v-1.334a.334.334 0 0 0-.666 0v1.334h-1.334a.334.334 0 0 0 0 .666z"/></g><g filter="url(#a)" transform="translate(11 30)"><path d="M43.356 56.467c-14.47 3.924-29.397-4.799-33.275-19.445-3.877-14.647 4.741-29.756 19.212-33.68C43.763-.584 58.69 8.14 62.568 22.786c3.877 14.646-4.741 29.755-19.212 33.68z" fill="#8680D8" fill-rule="nonzero"/><path d="M33.7 2.53C46.68 1.248 59.084 9.626 62.568 22.787c3.483 13.16-3.12 26.694-14.994 32.152a26.89 26.89 0 0 1-1.703.523c-14.306 3.88-29.064-4.745-32.897-19.225C9.14 21.757 17.66 6.82 31.967 2.94A26.859 26.859 0 0 1 33.7 2.53z" fill="#3C3C3C" fill-rule="nonzero" opacity=".337"/><path d="M55.528 20.553c-1.672.453-3.39-.55-3.838-2.243-.448-1.692.544-3.431 2.215-3.885 1.672-.453 3.39.551 3.838 2.243.448 1.692-.544 3.432-2.215 3.885zM25.952 23.585c-2.627.713-5.328-.865-6.032-3.524-.703-2.66.856-5.392 3.483-6.105 2.627-.712 5.327.866 6.03 3.525.705 2.659-.854 5.392-3.481 6.104zM40.307 50.46c-1.672.453-3.39-.552-3.838-2.244-.448-1.692.544-3.431 2.216-3.884 1.671-.454 3.39.55 3.838 2.242.447 1.693-.545 3.432-2.216 3.885z" fill="#595490"/><path d="M63.377 27.81l-.214-2.254 1.692 1.483c9.62 8.437 13.519 16.294 10.63 21.358-.924 1.62-2.496 2.727-4.632 3.306-3.038.824-7.244.593-12.49-.662-7.998-1.915-17.656-6.044-27.214-11.63-9.558-5.585-17.92-11.987-23.557-18.04-6.28-6.745-8.557-12.373-6.3-16.33C4.2-.059 12.487-.63 24.436 3.557l2.115.74-2.037.94a25.755 25.755 0 0 0-3.315 1.852l-.35.23-.4-.126c-8.445-2.64-13.816-2.09-15.124.202-.986 1.728 1.01 5.813 5.685 10.806 5.218 5.574 13.1 11.655 22.467 17.13 9.183 5.365 18.409 9.317 25.958 11.123 6.524 1.561 11.062 1.267 12.02-.413 1.274-2.235-1.19-7.566-7.717-13.69l-.307-.288.021-.423c.066-1.32.044-2.592-.074-3.83z" fill="#5757B2" fill-rule="nonzero"/></g><path d="M45.562 3.258L6.673 26.894C3.797 28.644 2 31.951 2 35.558v46.884c0 3.607 1.798 6.917 4.673 8.664l38.888 23.636A8.539 8.539 0 0 0 50 116a8.525 8.525 0 0 0 4.436-1.257l38.89-23.637C96.203 89.358 98 86.048 98 82.442V35.558c0-3.606-1.797-6.914-4.673-8.664L54.435 3.258A8.511 8.511 0 0 0 50 2c-1.546 0-3.07.428-4.438 1.258zm0 0s0 0 0 0h0z" stroke="#0078D4" stroke-width="4"/></g></svg>
